updated-assets/images/building.svg

<svg width="32" height="32" viewBox="0 0 32 32" fill="none" xmlns="http://www.w3.org/2000/svg">
<g clip-path="url(#clip0_1556_2454)">
<path d="M1.34375 2.53125H8.40625V31.5312H1.15625V2.71875C1.15625 2.66902 1.176 2.62133 1.21117 2.58617C1.24633 2.551 1.29402 2.53125 1.34375 2.53125ZM30.8438 31.5312H23.5938V2.53125H30.6562C30.706 2.53125 30.7537 2.551 30.7888 2.58617C30.824 2.62133 30.8438 2.66902 30.8438 2.71875V31.5312Z" fill="#E4EEF9"/>
<path d="M28.9688 2.53125V31.5312H30.8438V2.71875C30.8438 2.66902 30.824 2.62133 30.7888 2.58617C30.7537 2.551 30.706 2.53125 30.6562 2.53125H28.9688Z" fill="#D5E0F2"/>
<path d="M21.7188 4.09375H6.53125V31.5312H21.7188V4.09375Z" fill="#D5E0F2"/>
<path d="M8.59375 0.46875H23.4062C23.456 0.46875 23.5037 0.488504 23.5388 0.523667C23.574 0.558831 23.5938 0.606522 23.5938 0.65625V31.5312H8.40625V0.65625C8.40625 0.606522 8.426 0.558831 8.46117 0.523667C8.49633 0.488504 8.54402 0.46875 8.59375 0.46875Z" fill="#E4EEF9"/>
<path d="M23.4062 0.46875H21.5312C21.581 0.46875 21.6287 0.488504 21.6638 0.523667C21.699 0.558831 21.7188 0.606522 21.7188 0.65625V31.5312H23.5938V0.65625C23.5938 0.606522 23.574 0.558831 23.5388 0.523667C23.5037 0.488504 23.456 0.46875 23.4062 0.46875Z" fill="#D5E0F2"/>
<path d="M1.34375 2.53125H8.40625V4.09375H1.15625V2.71875C1.15625 2.66902 1.176 2.62133 1.21117 2.58617C1.24633 2.551 1.29402 2.53125 1.34375 2.53125Z" fill="#91C771"/>
<path d="M6.625 2.53125H8.40625V4.09375H6.53125V2.625C6.53173 2.60029 6.54176 2.57672 6.55924 2.55924C6.57672 2.54176 6.60029 2.53173 6.625 2.53125Z" fill="#77BE51"/>
<path d="M30.8438 4.09375H23.5938V2.53125H30.6562C30.706 2.53125 30.7537 2.551 30.7888 2.58617C30.824 2.62133 30.8438 2.66902 30.8438 2.71875V4.09375Z" fill="#91C771"/>
<path d="M28.9688 2.53125V4.09375H30.8438V2.71875C30.8438 2.66902 30.824 2.62133 30.7888 2.58617C30.7537 2.551 30.706 2.53125 30.6562 2.53125H28.9688Z" fill="#77BE51"/>
<path d="M8.59375 0.46875H23.4062C23.456 0.46875 23.5037 0.488504 23.5388 0.523667C23.574 0.558831 23.5938 0.606522 23.5938 0.65625V2.03125H8.40625V0.65625C8.40625 0.606522 8.426 0.558831 8.46117 0.523667C8.49633 0.488504 8.54402 0.46875 8.59375 0.46875Z" fill="#91C771"/>
<path d="M23.4062 0.46875H21.5312C21.581 0.46875 21.6287 0.488504 21.6638 0.523667C21.699 0.558831 21.7188 0.606522 21.7188 0.65625V2.03125H23.5938V0.65625C23.5938 0.606522 23.574 0.558831 23.5388 0.523667C23.5037 0.488504 23.456 0.46875 23.4062 0.46875Z" fill="#77BE51"/>
<path d="M14.5625 3.90625H11.125C11.0214 3.90625 10.9375 3.9902 10.9375 4.09375V6.28125C10.9375 6.3848 11.0214 6.46875 11.125 6.46875H14.5625C14.6661 6.46875 14.75 6.3848 14.75 6.28125V4.09375C14.75 3.9902 14.6661 3.90625 14.5625 3.90625Z" fill="#52BBE9"/>
<path d="M20.875 3.90625H17.4375C17.3339 3.90625 17.25 3.9902 17.25 4.09375V6.28125C17.25 6.3848 17.3339 6.46875 17.4375 6.46875H20.875C20.9786 6.46875 21.0625 6.3848 21.0625 6.28125V4.09375C21.0625 3.9902 20.9786 3.90625 20.875 3.90625Z" fill="#52BBE9"/>
<path d="M20.875 3.90625H19.625C19.6747 3.90625 19.7224 3.926 19.7576 3.96117C19.7927 3.99633 19.8125 4.04402 19.8125 4.09375V6.28125C19.8125 6.33098 19.7927 6.37867 19.7576 6.41383C19.7224 6.449 19.6747 6.46875 19.625 6.46875H20.875C20.9247 6.46875 20.9724 6.449 21.0076 6.41383C21.0427 6.37867 21.0625 6.33098 21.0625 6.28125V4.09375C21.0625 4.04402 21.0427 3.99633 21.0076 3.96117C20.9724 3.926 20.9247 3.90625 20.875 3.90625Z" fill="#1CABE1"/>
<path d="M28.2038 6.39746H26.2344C26.1308 6.39746 26.0469 6.48141 26.0469 6.58496V8.04059C26.0469 8.14414 26.1308 8.22809 26.2344 8.22809H28.2038C28.3073 8.22809 28.3913 8.14414 28.3913 8.04059V6.58496C28.3913 6.48141 28.3073 6.39746 28.2038 6.39746Z" fill="#52BBE9"/>
<path d="M28.2038 10.6475H26.2344C26.1308 10.6475 26.0469 10.7314 26.0469 10.835V12.2906C26.0469 12.3941 26.1308 12.4781 26.2344 12.4781H28.2038C28.3073 12.4781 28.3913 12.3941 28.3913 12.2906V10.835C28.3913 10.7314 28.3073 10.6475 28.2038 10.6475Z" fill="#52BBE9"/>
<path d="M28.2038 14.8975H26.2344C26.1308 14.8975 26.0469 14.9814 26.0469 15.085V16.5406C26.0469 16.6441 26.1308 16.7281 26.2344 16.7281H28.2038C28.3073 16.7281 28.3913 16.6441 28.3913 16.5406V15.085C28.3913 14.9814 28.3073 14.8975 28.2038 14.8975Z" fill="#52BBE9"/>
<path d="M28.2038 19.1475H26.2344C26.1308 19.1475 26.0469 19.2314 26.0469 19.335V20.7906C26.0469 20.8941 26.1308 20.9781 26.2344 20.9781H28.2038C28.3073 20.9781 28.3913 20.8941 28.3913 20.7906V19.335C28.3913 19.2314 28.3073 19.1475 28.2038 19.1475Z" fill="#52BBE9"/>
<path d="M28.2038 23.3975H26.2344C26.1308 23.3975 26.0469 23.4814 26.0469 23.585V25.0406C26.0469 25.1441 26.1308 25.2281 26.2344 25.2281H28.2038C28.3073 25.2281 28.3913 25.1441 28.3913 25.0406V23.585C28.3913 23.4814 28.3073 23.3975 28.2038 23.3975Z" fill="#52BBE9"/>
<path d="M28.2038 27.6475H26.2344C26.1308 27.6475 26.0469 27.7314 26.0469 27.835V29.2906C26.0469 29.3941 26.1308 29.4781 26.2344 29.4781H28.2038C28.3073 29.4781 28.3913 29.3941 28.3913 29.2906V27.835C28.3913 27.7314 28.3073 27.6475 28.2038 27.6475Z" fill="#52BBE9"/>
<path d="M5.76625 6.39746H3.79688C3.69332 6.39746 3.60938 6.48141 3.60938 6.58496V8.04059C3.60938 8.14414 3.69332 8.22809 3.79688 8.22809H5.76625C5.8698 8.22809 5.95375 8.14414 5.95375 8.04059V6.58496C5.95375 6.48141 5.8698 6.39746 5.76625 6.39746Z" fill="#52BBE9"/>
<path d="M5.76625 10.6475H3.79688C3.69332 10.6475 3.60938 10.7314 3.60938 10.835V12.2906C3.60938 12.3941 3.69332 12.4781 3.79688 12.4781H5.76625C5.8698 12.4781 5.95375 12.3941 5.95375 12.2906V10.835C5.95375 10.7314 5.8698 10.6475 5.76625 10.6475Z" fill="#52BBE9"/>
<path d="M5.76625 14.8975H3.79688C3.69332 14.8975 3.60938 14.9814 3.60938 15.085V16.5406C3.60938 16.6441 3.69332 16.7281 3.79688 16.7281H5.76625C5.8698 16.7281 5.95375 16.6441 5.95375 16.5406V15.085C5.95375 14.9814 5.8698 14.8975 5.76625 14.8975Z" fill="#52BBE9"/>
<path d="M5.76625 19.1475H3.79688C3.69332 19.1475 3.60938 19.2314 3.60938 19.335V20.7906C3.60938 20.8941 3.69332 20.9781 3.79688 20.9781H5.76625C5.8698 20.9781 5.95375 20.8941 5.95375 20.7906V19.335C5.95375 19.2314 5.8698 19.1475 5.76625 19.1475Z" fill="#52BBE9"/>
<path d="M5.76625 23.3975H3.79688C3.69332 23.3975 3.60938 23.4814 3.60938 23.585V25.0406C3.60938 25.1441 3.69332 25.2281 3.79688 25.2281H5.76625C5.8698 25.2281 5.95375 25.1441 5.95375 25.0406V23.585C5.95375 23.4814 5.8698 23.3975 5.76625 23.3975Z" fill="#52BBE9"/>
<path d="M5.76625 27.6475H3.79688C3.69332 27.6475 3.60938 27.7314 3.60938 27.835V29.2906C3.60938 29.3941 3.69332 29.4781 3.79688 29.4781H5.76625C5.8698 29.4781 5.95375 29.3941 5.95375 29.2906V27.835C5.95375 27.7314 5.8698 27.6475 5.76625 27.6475Z" fill="#52BBE9"/>
<path d="M14.5625 8.28125H11.125C11.0214 8.28125 10.9375 8.3652 10.9375 8.46875V10.6562C10.9375 10.7598 11.0214 10.8438 11.125 10.8438H14.5625C14.6661 10.8438 14.75 10.7598 14.75 10.6562V8.46875C14.75 8.3652 14.6661 8.28125 14.5625 8.28125Z" fill="#52BBE9"/>
<path d="M20.875 8.28125H17.4375C17.3339 8.28125 17.25 8.3652 17.25 8.46875V10.6562C17.25 10.7598 17.3339 10.8438 17.4375 10.8438H20.875C20.9786 10.8438 21.0625 10.7598 21.0625 10.6562V8.46875C21.0625 8.3652 20.9786 8.28125 20.875 8.28125Z" fill="#52BBE9"/>
<path d="M20.875 8.28125H19.625C19.6747 8.28125 19.7224 8.301 19.7576 8.33617C19.7927 8.37133 19.8125 8.41902 19.8125 8.46875V10.6562C19.8125 10.706 19.7927 10.7537 19.7576 10.7888C19.7224 10.824 19.6747 10.8438 19.625 10.8438H20.875C20.9247 10.8438 20.9724 10.824 21.0076 10.7888C21.0427 10.7537 21.0625 10.706 21.0625 10.6562V8.46875C21.0625 8.41902 21.0427 8.37133 21.0076 8.33617C20.9724 8.301 20.9247 8.28125 20.875 8.28125Z" fill="#1CABE1"/>
<path d="M14.5625 12.5312H11.125C11.0214 12.5312 10.9375 12.6152 10.9375 12.7188V14.9062C10.9375 15.0098 11.0214 15.0938 11.125 15.0938H14.5625C14.6661 15.0938 14.75 15.0098 14.75 14.9062V12.7188C14.75 12.6152 14.6661 12.5312 14.5625 12.5312Z" fill="#52BBE9"/>
<path d="M20.875 12.5312H17.4375C17.3339 12.5312 17.25 12.6152 17.25 12.7188V14.9062C17.25 15.0098 17.3339 15.0938 17.4375 15.0938H20.875C20.9786 15.0938 21.0625 15.0098 21.0625 14.9062V12.7188C21.0625 12.6152 20.9786 12.5312 20.875 12.5312Z" fill="#52BBE9"/>
<path d="M20.875 12.5312H19.625C19.6747 12.5312 19.7224 12.551 19.7576 12.5862C19.7927 12.6213 19.8125 12.669 19.8125 12.7188V14.9062C19.8125 14.956 19.7927 15.0037 19.7576 15.0388C19.7224 15.074 19.6747 15.0938 19.625 15.0938H20.875C20.9247 15.0938 20.9724 15.074 21.0076 15.0388C21.0427 15.0037 21.0625 14.956 21.0625 14.9062V12.7188C21.0625 12.669 21.0427 12.6213 21.0076 12.5862C20.9724 12.551 20.9247 12.5312 20.875 12.5312Z" fill="#1CABE1"/>
<path d="M14.5625 16.7812H11.125C11.0214 16.7812 10.9375 16.8652 10.9375 16.9688V19.1562C10.9375 19.2598 11.0214 19.3438 11.125 19.3438H14.5625C14.6661 19.3438 14.75 19.2598 14.75 19.1562V16.9688C14.75 16.8652 14.6661 16.7812 14.5625 16.7812Z" fill="#52BBE9"/>
<path d="M20.875 16.7812H17.4375C17.3339 16.7812 17.25 16.8652 17.25 16.9688V19.1562C17.25 19.2598 17.3339 19.3438 17.4375 19.3438H20.875C20.9786 19.3438 21.0625 19.2598 21.0625 19.1562V16.9688C21.0625 16.8652 20.9786 16.7812 20.875 16.7812Z" fill="#52BBE9"/>
<path d="M20.875 16.7812H19.625C19.6747 16.7812 19.7224 16.801 19.7576 16.8362C19.7927 16.8713 19.8125 16.919 19.8125 16.9688V19.1562C19.8125 19.206 19.7927 19.2537 19.7576 19.2888C19.7224 19.324 19.6747 19.3438 19.625 19.3438H20.875C20.9247 19.3438 20.9724 19.324 21.0076 19.2888C21.0427 19.2537 21.0625 19.206 21.0625 19.1562V16.9688C21.0625 16.919 21.0427 16.8713 21.0076 16.8362C20.9724 16.801 20.9247 16.7812 20.875 16.7812Z" fill="#1CABE1"/>
<path d="M14.5625 21.0312H11.125C11.0214 21.0312 10.9375 21.1152 10.9375 21.2188V23.4062C10.9375 23.5098 11.0214 23.5938 11.125 23.5938H14.5625C14.6661 23.5938 14.75 23.5098 14.75 23.4062V21.2188C14.75 21.1152 14.6661 21.0312 14.5625 21.0312Z" fill="#52BBE9"/>
<path d="M20.875 21.0312H17.4375C17.3339 21.0312 17.25 21.1152 17.25 21.2188V23.4062C17.25 23.5098 17.3339 23.5938 17.4375 23.5938H20.875C20.9786 23.5938 21.0625 23.5098 21.0625 23.4062V21.2188C21.0625 21.1152 20.9786 21.0312 20.875 21.0312Z" fill="#52BBE9"/>
<path d="M20.875 21.0312H19.625C19.6747 21.0312 19.7224 21.051 19.7576 21.0862C19.7927 21.1213 19.8125 21.169 19.8125 21.2188V23.4062C19.8125 23.456 19.7927 23.5037 19.7576 23.5388C19.7224 23.574 19.6747 23.5938 19.625 23.5938H20.875C20.9247 23.5938 20.9724 23.574 21.0076 23.5388C21.0427 23.5037 21.0625 23.456 21.0625 23.4062V21.2188C21.0625 21.169 21.0427 21.1213 21.0076 21.0862C20.9724 21.051 20.9247 21.0312 20.875 21.0312Z" fill="#1CABE1"/>
<path d="M11.125 25.2188H14.5625C14.6122 25.2188 14.6599 25.2385 14.6951 25.2737C14.7302 25.3088 14.75 25.3565 14.75 25.4062V31.5312H10.9375V25.4062C10.9375 25.3565 10.9573 25.3088 10.9924 25.2737C11.0276 25.2385 11.0753 25.2188 11.125 25.2188Z" fill="#F9B15E"/>
<path d="M14.5625 25.2188H12.6875C12.7372 25.2188 12.7849 25.2385 12.8201 25.2737C12.8552 25.3088 12.875 25.3565 12.875 25.4062V31.5312H14.75V25.4062C14.75 25.3565 14.7302 25.3088 14.6951 25.2737C14.6599 25.2385 14.6122 25.2188 14.5625 25.2188Z" fill="#F9A242"/>
<path d="M17.4375 25.2188H20.875C20.9247 25.2188 20.9724 25.2385 21.0076 25.2737C21.0427 25.3088 21.0625 25.3565 21.0625 25.4062V31.5312H17.25V25.4062C17.25 25.3565 17.2698 25.3088 17.3049 25.2737C17.3401 25.2385 17.3878 25.2188 17.4375 25.2188Z" fill="#F9B15E"/>
<path d="M20.875 25.2188H19C19.0497 25.2188 19.0974 25.2385 19.1326 25.2737C19.1677 25.3088 19.1875 25.3565 19.1875 25.4062V31.5312H21.0625V25.4062C21.0625 25.3565 21.0427 25.3088 21.0076 25.2737C20.9724 25.2385 20.9247 25.2188 20.875 25.2188Z" fill="#F9A242"/>
<path d="M31.5312 32H0.46875C0.34443 32 0.225201 31.9506 0.137294 31.8627C0.049386 31.7748 0 31.6556 0 31.5312C0 31.4069 0.049386 31.2877 0.137294 31.1998C0.225201 31.1119 0.34443 31.0625 0.46875 31.0625H31.5312C31.6556 31.0625 31.7748 31.1119 31.8627 31.1998C31.9506 31.2877 32 31.4069 32 31.5312C32 31.6556 31.9506 31.7748 31.8627 31.8627C31.7748 31.9506 31.6556 32 31.5312 32Z" fill="#787681"/>
</g>
<defs>
<clipPath id="clip0_1556_2454">
<rect width="32" height="32" fill="white"/>
</clipPath>
</defs>
</svg>

<svg width="32" height="32" fill="none" xmlns="http://www.w3.org/2000/svg"><g clip-path="url(#a)"><path d="M1.344 2.531h7.062v29h-7.25V2.72a.187.187 0 0 1 .188-.188Zm29.5 29h-7.25v-29h7.062a.187.187 0 0 1 .188.188V31.53Z" fill="#E4EEF9"/><path d="M28.969 2.531v29h1.875V2.72a.187.187 0 0 0-.188-.188H28.97Zm-7.25 1.563H6.53V31.53h15.19V4.094Z" fill="#D5E0F2"/><path d="M8.594.469h14.812a.187.187 0 0 1 .188.187v30.875H8.406V.656A.187.187 0 0 1 8.594.47Z" fill="#E4EEF9"/><path d="M23.406.469h-1.875a.187.187 0 0 1 .188.187v30.875h1.875V.656a.187.187 0 0 0-.188-.187Z" fill="#D5E0F2"/><path d="M1.344 2.531h7.062v1.563h-7.25V2.719a.187.187 0 0 1 .188-.188Z" fill="#91C771"/><path d="M6.625 2.531h1.781v1.563H6.531V2.625a.096.096 0 0 1 .094-.094Z" fill="#77BE51"/><path d="M30.844 4.094h-7.25V2.53h7.062a.187.187 0 0 1 .188.188v1.375Z" fill="#91C771"/><path d="M28.969 2.531v1.563h1.875V2.719a.187.187 0 0 0-.188-.188H28.97Z" fill="#77BE51"/><path d="M8.594.469h14.812a.187.187 0 0 1 .188.187v1.375H8.406V.656A.187.187 0 0 1 8.594.47Z" fill="#91C771"/><path d="M23.406.469h-1.875a.187.187 0 0 1 .188.187v1.375h1.875V.656a.187.187 0 0 0-.188-.187Z" fill="#77BE51"/><path d="M14.563 3.906h-3.438a.187.187 0 0 0-.188.188V6.28c0 .104.084.188.188.188h3.438a.187.187 0 0 0 .187-.188V4.094a.187.187 0 0 0-.188-.188Zm6.312 0h-3.438a.187.187 0 0 0-.187.188V6.28c0 .104.084.188.188.188h3.437a.187.187 0 0 0 .188-.188V4.094a.187.187 0 0 0-.188-.188Z" fill="#52BBE9"/><path d="M20.875 3.906h-1.25a.188.188 0 0 1 .188.188V6.28a.188.188 0 0 1-.188.188h1.25a.188.188 0 0 0 .188-.188V4.094a.188.188 0 0 0-.188-.188Z" fill="#1CABE1"/><path d="M28.204 6.397h-1.97a.187.187 0 0 0-.187.188v1.456c0 .103.084.187.187.187h1.97a.188.188 0 0 0 .187-.187V6.585a.188.188 0 0 0-.187-.188Zm0 4.251h-1.97a.187.187 0 0 0-.187.187v1.456c0 .103.084.187.187.187h1.97a.188.188 0 0 0 .187-.187v-1.456a.188.188 0 0 0-.187-.188Zm0 4.25h-1.97a.187.187 0 0 0-.187.187v1.456c0 .103.084.187.187.187h1.97a.188.188 0 0 0 .187-.187v-1.456a.188.188 0 0 0-.187-.188Zm0 4.25h-1.97a.187.187 0 0 0-.187.187v1.456c0 .103.084.187.187.187h1.97a.188.188 0 0 0 .187-.187v-1.456a.188.188 0 0 0-.187-.188Zm0 4.25h-1.97a.187.187 0 0 0-.187.187v1.456c0 .103.084.187.187.187h1.97a.188.188 0 0 0 .187-.187v-1.456a.188.188 0 0 0-.187-.188Zm0 4.25h-1.97a.187.187 0 0 0-.187.187v1.456c0 .103.084.187.187.187h1.97a.188.188 0 0 0 .187-.187v-1.456a.188.188 0 0 0-.187-.188ZM5.766 6.397h-1.97a.187.187 0 0 0-.187.188v1.456c0 .103.084.187.188.187h1.97a.188.188 0 0 0 .187-.187V6.585a.188.188 0 0 0-.188-.188Zm0 4.251h-1.97a.187.187 0 0 0-.187.187v1.456c0 .103.084.187.188.187h1.97a.188.188 0 0 0 .187-.187v-1.456a.187.187 0 0 0-.188-.188Zm0 4.25h-1.97a.187.187 0 0 0-.187.187v1.456c0 .103.084.187.188.187h1.97a.188.188 0 0 0 .187-.187v-1.456a.187.187 0 0 0-.188-.188Zm0 4.25h-1.97a.187.187 0 0 0-.187.187v1.456c0 .103.084.187.188.187h1.97a.188.188 0 0 0 .187-.187v-1.456a.187.187 0 0 0-.188-.188Zm0 4.25h-1.97a.187.187 0 0 0-.187.187v1.456c0 .103.084.187.188.187h1.97a.188.188 0 0 0 .187-.187v-1.456a.187.187 0 0 0-.188-.188Zm0 4.25h-1.97a.187.187 0 0 0-.187.187v1.456c0 .103.084.187.188.187h1.97a.188.188 0 0 0 .187-.187v-1.456a.187.187 0 0 0-.188-.188Zm8.797-19.367h-3.438a.187.187 0 0 0-.188.188v2.187c0 .104.084.188.188.188h3.438a.188.188 0 0 0 .187-.188V8.47a.187.187 0 0 0-.188-.188Zm6.312 0h-3.438a.187.187 0 0 0-.187.188v2.187c0 .104.084.188.188.188h3.437a.188.188 0 0 0 .188-.188V8.47a.187.187 0 0 0-.188-.188Z" fill="#52BBE9"/><path d="M20.875 8.281h-1.25a.188.188 0 0 1 .188.188v2.187a.188.188 0 0 1-.188.188h1.25a.188.188 0 0 0 .188-.188V8.47a.188.188 0 0 0-.188-.188Z" fill="#1CABE1"/><path d="M14.563 12.531h-3.438a.188.188 0 0 0-.188.188v2.187c0 .104.084.188.188.188h3.438a.188.188 0 0 0 .187-.188V12.72a.188.188 0 0 0-.188-.188Zm6.312 0h-3.438a.188.188 0 0 0-.187.188v2.187c0 .104.084.188.188.188h3.437a.188.188 0 0 0 .188-.188V12.72a.188.188 0 0 0-.188-.188Z" fill="#52BBE9"/><path d="M20.875 12.531h-1.25a.188.188 0 0 1 .188.188v2.187a.188.188 0 0 1-.188.188h1.25a.188.188 0 0 0 .188-.188V12.72a.188.188 0 0 0-.188-.188Z" fill="#1CABE1"/><path d="M14.563 16.781h-3.438a.188.188 0 0 0-.188.188v2.187c0 .104.084.188.188.188h3.438a.188.188 0 0 0 .187-.188V16.97a.188.188 0 0 0-.188-.188Zm6.312 0h-3.438a.188.188 0 0 0-.187.188v2.187c0 .104.084.188.188.188h3.437a.188.188 0 0 0 .188-.188V16.97a.188.188 0 0 0-.188-.188Z" fill="#52BBE9"/><path d="M20.875 16.781h-1.25a.188.188 0 0 1 .188.188v2.187a.188.188 0 0 1-.188.188h1.25a.188.188 0 0 0 .188-.188V16.97a.188.188 0 0 0-.188-.188Z" fill="#1CABE1"/><path d="M14.563 21.031h-3.438a.188.188 0 0 0-.188.188v2.187c0 .104.084.188.188.188h3.438a.188.188 0 0 0 .187-.188V21.22a.188.188 0 0 0-.188-.188Zm6.312 0h-3.438a.188.188 0 0 0-.187.188v2.187c0 .104.084.188.188.188h3.437a.188.188 0 0 0 .188-.188V21.22a.188.188 0 0 0-.188-.188Z" fill="#52BBE9"/><path d="M20.875 21.031h-1.25a.188.188 0 0 1 .188.188v2.187a.188.188 0 0 1-.188.188h1.25a.188.188 0 0 0 .188-.188V21.22a.188.188 0 0 0-.188-.188Z" fill="#1CABE1"/><path d="M11.125 25.219h3.438a.187.187 0 0 1 .187.187v6.125h-3.813v-6.125a.187.187 0 0 1 .188-.187Z" fill="#F9B15E"/><path d="M14.563 25.219h-1.876a.187.187 0 0 1 .188.187v6.125h1.875v-6.125a.187.187 0 0 0-.188-.187Z" fill="#F9A242"/><path d="M17.438 25.219h3.437a.187.187 0 0 1 .188.187v6.125H17.25v-6.125a.187.187 0 0 1 .188-.187Z" fill="#F9B15E"/><path d="M20.875 25.219H19a.187.187 0 0 1 .188.187v6.125h1.875v-6.125a.187.187 0 0 0-.188-.187Z" fill="#F9A242"/><path d="M31.531 32H.47a.469.469 0 0 1 0-.938h31.06a.469.469 0 1 1 0 .938Z" fill="#787681"/></g><defs><clipPath id="a"><path fill="#fff" d="M0 0h32v32H0z"/></clipPath></defs></svg>
